papirus/32x32/apps/eric.svg

<svg height="32" viewBox="0 0 32 32.000001" width="32" xmlns="http://www.w3.org/2000/svg"><path d="m22 10v3c0 1.662-1.338 3-3 3h-6c0 0-3 0-3 3v5.25c0 2.078 2.342 3.75 5.25 3.75h1.5c2.908 0 5.25-1.672 5.25-3.75v-2.25h2.25c2.078 0 3.75-2.342 3.75-5.25v-1.5c0-2.908-1.672-5.25-3.75-5.25zm-3 14a1 1 0 0 1 1 1 1 1 0 0 1 -1 1 1 1 0 0 1 -1-1 1 1 0 0 1  1-1z" fill="#ffc851"/><path d="m15.25 4c-2.908 0-5.25 1.6725-5.25 3.75v2.25h-2.25c-2.0775 0-3.75 2.342-3.75 5.25v1.5c0 2.908 1.6725 5.25 3.75 5.25h2.25v-3c0-1.662 1.338-3 3-3h6c0 0 3 0 3-3v-5.25c0-2.0775-2.342-3.75-5.25-3.75z" fill="#4795d1"/><path d="m13 7a1 1 0 0 1 1 1 1 1 0 0 1 -1 1 1 1 0 0 1 -1-1 1 1 0 0 1  1-1z" opacity=".2"/><path d="m13 6a1 1 0 0 1 1 1 1 1 0 0 1 -1 1 1 1 0 0 1 -1-1 1 1 0 0 1  1-1z" fill="#fff"/><path d="m15.25 4c-2.908 0-5.25 1.6725-5.25 3.75v1c0-2.0775 2.342-3.75 5.25-3.75h1.5c2.908 0 5.25 1.6725 5.25 3.75v-1c0-2.0775-2.342-3.75-5.25-3.75zm-7.5 6c-2.0775 0-3.75 2.342-3.75 5.25v1c0-2.908 1.6725-5.25 3.75-5.25h2.25v-1z" fill="#fff" opacity=".1"/><path d="m22 10v1h2.25c2.0775 0 3.75 2.3415 3.75 5.25v-1c0-2.908-1.672-5.25-3.75-5.25zm0 3c0 1.662-1.338 3-3 3h-6c0 0-3 0-3 3v1c0-3 3-3 3-3h6c1.662 0 3-1.338 3-3z" fill="#fff" opacity=".1"/><path d="m22 12c0 3-3 3-3 3h-6c-1.662 0-3 1.338-3 3v1c0-1.662 1.338-3 3-3h6c0 0 3 0 3-3zm-18 3.75v1c0 2.908 1.6725 5.25 3.75 5.25h2.25v-1h-2.25c-2.0775 0-3.75-2.342-3.75-5.25z" opacity=".3"/><path d="m28 15.75c0 2.908-1.672 5.25-3.75 5.25h-2.25v1h2.25c2.078 0 3.75-2.342 3.75-5.25zm-18 7.5v1c0 2.0775 2.3415 3.75 5.25 3.75h1.5c2.908 0 5.25-1.672 5.25-3.75v-1c0 2.078-2.342 3.75-5.25 3.75h-1.5c-2.908 0-5.25-1.672-5.25-3.75z" opacity=".3"/><circle cx="24" cy="24" fill="#cc5e55" fill-rule="evenodd" r="8"/><path d="m23 20l-.0882 1.0536a3.1429 3.1429 0 0 0 -.91852.53126l-.95759-.4509-1 1.7321.86941.6038a3.1429 3.1429 0 0 0 -.048.53013 3.1429 3.1429 0 0 0  .0457.53237l-.86719.60156 1 1.7321.95536-.44978a3.1429 3.1429 0 0 0  .92075.5279l.0882 1.0558h2l .0882-1.0536a3.1429 3.1429 0 0 0  .91854-.53126l.95758.4509 1-1.7321-.86942-.6038a3.1429 3.1429 0 0 0  .048-.53013 3.1429 3.1429 0 0 0 -.0457-.53237l.86719-.60156-1-1.7321-.95536.44978a3.1429 3.1429 0 0 0 -.92076-.5279l-.0882-1.0558h-2zm1 2.8572a1.1429 1.1429 0 0 1 1.1429 1.1428 1.1429 1.1429 0 0 1 -1.1429 1.1428 1.1429 1.1429 0 0 1 -1.1429-1.1428 1.1429 1.1429 0 0 1  1.1428-1.1428z" fill="#fff"/><path d="m31.978516 23.423828a8 8 0 0 1 -7.978516 7.576172 8 8 0 0 1 -7.978516-7.423828 8 8 0 0 0 -.021484.423828 8 8 0 0 0  8 8 8 8 0 0 0  8-8 8 8 0 0 0 -.021484-.576172z" fill-rule="evenodd" opacity=".3"/></svg>

<?xml version="1.0" encoding="UTF-8" standalone="no"?>
<!-- Created with Inkscape (http://www.inkscape.org/) -->

<svg
   xmlns:dc="http://purl.org/dc/elements/1.1/"
   xmlns:cc="http://creativecommons.org/ns#"
   xmlns:rdf="http://www.w3.org/1999/02/22-rdf-syntax-ns#"
   xmlns:svg="http://www.w3.org/2000/svg"
   xmlns="http://www.w3.org/2000/svg"
   xmlns:sodipodi="http://sodipodi.sourceforge.net/DTD/sodipodi-0.dtd"
   xmlns:inkscape="http://www.inkscape.org/namespaces/inkscape"
   id="svg4688"
   height="32"
   viewBox="0 0 32 32.000001"
   width="32"
   version="1.1"
   inkscape:version="0.91 r13725"
   sodipodi:docname="eric.svg">
  <defs
     id="defs13" />
  <sodipodi:namedview
     pagecolor="#ffffff"
     bordercolor="#666666"
     borderopacity="1"
     objecttolerance="10"
     gridtolerance="10"
     guidetolerance="10"
     inkscape:pageopacity="0"
     inkscape:pageshadow="2"
     inkscape:window-width="1600"
     inkscape:window-height="849"
     id="namedview11"
     showgrid="false"
     inkscape:zoom="7.375"
     inkscape:cx="-11.661017"
     inkscape:cy="11.457985"
     inkscape:window-x="0"
     inkscape:window-y="0"
     inkscape:window-maximized="1"
     inkscape:current-layer="svg4688" />
  <metadata
     id="metadata4693">
    <rdf:RDF>
      <cc:Work
         rdf:about="">
        <dc:format>image/svg+xml</dc:format>
        <dc:type
           rdf:resource="http://purl.org/dc/dcmitype/StillImage" />
        <dc:title />
      </cc:Work>
    </rdf:RDF>
  </metadata>
  <path
     d="m 22,10 0,3 c 0,1.662 -1.338,3 -3,3 l -6,0 c 0,0 -3,0 -3,3 l 0,5.25 c 0,2.078 2.342,3.75 5.25,3.75 l 1.5,0 C 19.658,28 22,26.328 22,24.25 L 22,22 24.25,22 C 26.328,22 28,19.658 28,16.75 l 0,-1.5 C 28,12.342 26.328,10 24.25,10 L 22,10 Z m -3,14 a 1,1 0 0 1 1,1 1,1 0 0 1 -1,1 1,1 0 0 1 -1,-1 1,1 0 0 1 1,-1 z"
     style="color:#000000;fill:#ffc851"
     id="path4204-3"
     inkscape:connector-curvature="0" />
  <path
     style="color:#000000;fill:#4795d1"
     d="M 15.25,4 C 12.342,4 10,5.6725 10,7.75 L 10,10 7.75,10 C 5.6725,10 4,12.342 4,15.25 l 0,1.5 C 4,19.658 5.6725,22 7.75,22 l 2.25,0 0,-3 c 0,-1.662 1.338,-3 3,-3 l 6,0 c 0,0 3,0 3,-3 L 22,7.75 C 22,5.6725 19.658,4 16.75,4 l -1.5,0 z"
     id="path4157" />
  <path
     id="path4159"
     d="M 13,7 A 1,1 0 0 1 14,8 1,1 0 0 1 13,9 1,1 0 0 1 12,8 1,1 0 0 1 13,7 Z"
     style="color:#000000;opacity:0.2;fill:#000000;fill-opacity:1"
     inkscape:connector-curvature="0" />
  <path
     style="color:#000000;fill:#ffffff;fill-opacity:1"
     d="M 13,6 A 1,1 0 0 1 14,7 1,1 0 0 1 13,8 1,1 0 0 1 12,7 1,1 0 0 1 13,6 Z"
     id="path4202-7" />
  <path
     d="M 15.25,4 C 12.342,4 10,5.6725 10,7.75 l 0,1 C 10,6.6725 12.342,5 15.25,5 l 1.5,0 C 19.658,5 22,6.6725 22,8.75 l 0,-1 C 22,5.6725 19.658,4 16.75,4 Z m -7.5,6 C 5.6725,10 4,12.342 4,15.25 l 0,1 C 4,13.342 5.6725,11 7.75,11 l 2.25,0 0,-1 z"
     style="color:#000000;opacity:0.1;fill:#ffffff"
     id="path5407"
     inkscape:connector-curvature="0" />
  <path
     d="m 22,10 0,1 2.25,0 c 2.0775,0 3.75,2.3415 3.75,5.25 l 0,-1 C 28,12.342 26.328,10 24.25,10 Z m 0,3 c 0,1.662 -1.338,3 -3,3 l -6,0 c 0,0 -3,0 -3,3 l 0,1 c 0,-3 3,-3 3,-3 l 6,0 c 1.662,0 3,-1.338 3,-3 z"
     style="color:#000000;opacity:0.1;fill:#ffffff"
     id="path5412"
     inkscape:connector-curvature="0" />
  <path
     d="m 22,12 c 0,3 -3,3 -3,3 l -6,0 c -1.662,0 -3,1.338 -3,3 l 0,1 c 0,-1.662 1.338,-3 3,-3 l 6,0 c 0,0 3,0 3,-3 z m -18,3.75 0,1 C 4,19.658 5.6725,22 7.75,22 L 10,22 10,21 7.75,21 C 5.6725,21 4,18.658 4,15.75 Z"
     style="color:#000000;opacity:0.3"
     id="path5417"
     inkscape:connector-curvature="0" />
  <path
     d="M 28,15.75 C 28,18.658 26.328,21 24.25,21 l -2.25,0 0,1 2.25,0 C 26.328,22 28,19.658 28,16.75 Z m -18,7.5 0,1 c 0,2.0775 2.3415,3.75 5.25,3.75 l 1.5,0 C 19.658,28 22,26.328 22,24.25 l 0,-1 C 22,25.328 19.658,27 16.75,27 l -1.5,0 C 12.342,27 10,25.328 10,23.25 Z"
     style="color:#000000;opacity:0.3"
     id="path5422"
     inkscape:connector-curvature="0" />
  <circle
     id="circle4426"
     style="fill:#cc5e55;fill-rule:evenodd;enable-background:new"
     cx="24"
     cy="24"
     r="8" />
  <path
     id="path5127"
     d="m 23,20 -0.0882,1.0536 a 3.1429,3.1429 0 0 0 -0.91852,0.53126 l -0.95759,-0.4509 -1,1.7321 0.86941,0.6038 a 3.1429,3.1429 0 0 0 -0.048,0.53013 3.1429,3.1429 0 0 0 0.0457,0.53237 l -0.86719,0.60156 1,1.7321 0.95536,-0.44978 a 3.1429,3.1429 0 0 0 0.92075,0.5279 l 0.0882,1.0558 2,0 0.0882,-1.0536 a 3.1429,3.1429 0 0 0 0.91854,-0.53126 l 0.95758,0.4509 1,-1.7321 -0.86942,-0.6038 a 3.1429,3.1429 0 0 0 0.048,-0.53013 3.1429,3.1429 0 0 0 -0.0457,-0.53237 l 0.86719,-0.60156 -1,-1.7321 -0.95536,0.44978 A 3.1429,3.1429 0 0 0 25.08819,21.0558 L 24.99999,20 l -2,0 z m 1,2.8572 A 1.1429,1.1429 0 0 1 25.1429,24 1.1429,1.1429 0 0 1 24,25.1428 1.1429,1.1429 0 0 1 22.8571,24 1.1429,1.1429 0 0 1 23.9999,22.8572 Z"
     style="fill:#ffffff;enable-background:new"
     inkscape:connector-curvature="0" />
  <path
     style="fill:#000000;fill-rule:evenodd;enable-background:new;fill-opacity:1;opacity:0.3"
     d="M 31.978516 23.423828 A 8 8 0 0 1 24 31 A 8 8 0 0 1 16.021484 23.576172 A 8 8 0 0 0 16 24 A 8 8 0 0 0 24 32 A 8 8 0 0 0 32 24 A 8 8 0 0 0 31.978516 23.423828 z "
     id="circle4150" />
</svg>
